X:113
M:6/8
L:1/8
K:G
d2c BAG | AGF G2D | d2c BAG | AGF G3::ABG ABG | ABG A2A | c2B A2G | F2E D3 |
|: dBG dBG | dBG A2B | c2B A2G | F2E D3 | GBd GBd | GcB dgf | g2c BAG | AGF G3 :|

